X:875
T: Rising Sun (D)
T: \'Eir\'i na Gr\'eine
S: B.Breathnach: "Ceol Rince na hEireann" II/214iii
Z: B.Black
L: 1/8
M: 4/4
R: reel
K: D
fe|d2 FB A2 FA|(3Bcd ef gfef|dedB AGFD|EFGE D2 fe|
dADB ADFA|(3Bcd ef gfef|dedB AGFD|EGFE D2 :|
(3ABc|: defg afed|(3cBA eA fAeA|defg abaf|1 gfef dcBA :|2\
geaf d2 ||

